assets/si/si-blackberry.svg

<svg xmlns="http://www.w3.org/2000/svg" width="100%" height="100%" viewBox="-3.36 -3.36 30.72 30.72"><path d="M2.05 3.54L1.17 7.7h3.28c2.52 0 3.28-1.23 3.28-2.34 0-.82-.47-1.82-2.52-1.82H2.05m8.49 0L9.66 7.7h3.28c2.56 0 3.28-1.23 3.28-2.34 0-.82-.47-1.82-2.52-1.82h-3.16m7.78 3.69l-.93 4.16h3.28c2.57 0 3.33-1.17 3.33-2.34 0-.82-.47-1.82-2.5-1.82h-3.18M.88 9.8L0 13.96h3.28c2.57 0 3.28-1.23 3.28-2.34 0-.82-.47-1.82-2.52-1.82H.88m8.55 0l-.93 4.16h3.27c2.57 0 3.34-1.23 3.34-2.34 0-.82-.47-1.82-2.52-1.82H9.42m7.67 3.93l-.87 4.15h3.28c2.5 0 3.27-1.17 3.27-2.34 0-.82-.47-1.81-2.51-1.81h-3.17M8.2 16.3l-.88 4.16h3.28c2.51 0 3.27-1.23 3.27-2.34 0-.82-.46-1.82-2.51-1.82H8.2z"/></svg>

<svg xmlns="http://www.w3.org/2000/svg" width="100%" height="100%" viewBox="-3.36 -3.36 30.72 30.72"><path d="M2.05 3.54L1.17 7.7H4.45C6.97 7.7 7.73 6.47 7.73 5.36C7.73 4.54 7.26 3.54 5.21 3.54H2.05M10.54 3.54L9.66 7.7H12.94C15.5 7.7 16.22 6.47 16.22 5.36C16.22 4.54 15.75 3.54 13.7 3.54H10.54M18.32 7.23L17.39 11.39H20.67C23.24 11.39 24 10.22 24 9.05C24 8.23 23.53 7.23 21.5 7.23H18.32M.88 9.8L0 13.96H3.28C5.85 13.96 6.56 12.73 6.56 11.62C6.56 10.8 6.09 9.8 4.04 9.8H.88M9.43 9.8L8.5 13.96H11.77C14.34 13.96 15.11 12.73 15.11 11.62C15.11 10.8 14.64 9.8 12.59 9.8H9.42M17.09 13.73L16.22 17.88H19.5C22 17.88 22.77 16.71 22.77 15.54C22.77 14.72 22.3 13.73 20.26 13.73H17.09M8.2 16.3L7.32 20.46H10.6C13.11 20.46 13.87 19.23 13.87 18.12C13.87 17.3 13.41 16.3 11.36 16.3H8.2Z"/></svg>
